src/raw/charter/icon_32.svg

<svg width="32" height="32" viewBox="0 0 32 32" fill="none" xmlns="http://www.w3.org/2000/svg">
<path d="M26.9946 12V10.9973C26.9946 9.93646 26.5732 8.91905 25.8231 8.1689C25.0729 7.41876 24.0555 6.99733 22.9946 6.99733H4.99463C3.93376 6.99733 2.91635 7.41876 2.1662 8.1689C1.41606 8.91905 0.994629 9.93646 0.994629 10.9973V22.9973C0.994629 24.0582 1.41606 25.0756 2.1662 25.8258C2.91635 26.5759 3.93376 26.9973 4.99463 26.9973H11.9727" stroke="#71717A" stroke-width="1.5" stroke-linecap="round" stroke-linejoin="round"/>
<path d="M7.99463 6.99733V26.9973" stroke="#71717A" stroke-width="1.5" stroke-linecap="round" stroke-linejoin="round"/>
<path d="M19.9946 6.99733V11.9987" stroke="#71717A" stroke-width="1.5" stroke-linecap="round" stroke-linejoin="round"/>
<path d="M10 6.99733V2.99733C10 2.4669 10.2107 1.95819 10.5858 1.58312C10.9609 1.20804 11.4696 0.99733 12 0.99733H16C16.2626 0.99733 16.5227 1.04906 16.7654 1.14957C17.008 1.25008 17.2285 1.3974 17.4142 1.58312C17.5999 1.76883 17.7472 1.98931 17.8478 2.23196C17.9483 2.47461 18 2.73469 18 2.99733V6.9375" stroke="#71717A" stroke-width="1.5" stroke-linecap="round" stroke-linejoin="round"/>
<path d="M22.9946 30.9973C27.4129 30.9973 30.9946 27.4156 30.9946 22.9973C30.9946 18.5791 27.4129 14.9973 22.9946 14.9973C18.5764 14.9973 14.9946 18.5791 14.9946 22.9973C14.9946 27.4156 18.5764 30.9973 22.9946 30.9973Z" stroke="#71717A" stroke-width="1.5" stroke-linecap="round" stroke-linejoin="round"/>
<path d="M15.5771 26H17.9998C18.5302 26 19.039 25.7893 19.414 25.4142C19.7891 25.0391 19.9998 24.5304 19.9998 24V22.9973L22.3998 21.2C22.6099 21.0424 22.7869 20.845 22.9208 20.619C23.0546 20.393 23.1426 20.1428 23.1797 19.8828C23.2169 19.6228 23.2024 19.3581 23.1372 19.1036C23.0721 18.8492 22.9574 18.6101 22.7998 18.4L20.6011 15.4632" stroke="#71717A" stroke-width="1.5" stroke-linecap="round" stroke-linejoin="round"/>
<path d="M27.212 29.796L26.384 26.5547C26.2735 26.113 26.317 25.6468 26.5073 25.2333C26.6976 24.8197 27.0234 24.4834 27.4307 24.28L30.8687 22.55" stroke="#71717A" stroke-width="1.5" stroke-linecap="round" stroke-linejoin="round"/>
</svg>

<svg xmlns="http://www.w3.org/2000/svg" width="32" height="32" fill="none" viewBox="0 0 32 32">
  <path stroke="#3F3F46" stroke-linecap="round" stroke-linejoin="round" stroke-width="2"
    d="M26.995 12v-1.003a4 4 0 0 0-4-4h-18a4 4 0 0 0-4 4v12a4 4 0 0 0 4 4h6.978M7.995 6.997v20M19.995 6.997v5.001M10 6.997v-4a2 2 0 0 1 2-2h4a2 2 0 0 1 2 2v3.94" />
  <path stroke="#3F3F46" stroke-linecap="round" stroke-linejoin="round" stroke-width="2"
    d="M22.995 30.997a8 8 0 1 0 0-16 8 8 0 0 0 0 16Z" />
  <path stroke="#3F3F46" stroke-linecap="round" stroke-linejoin="round" stroke-width="2"
    d="M15.577 26H18a2 2 0 0 0 2-2v-1.003l2.4-1.797a2.002 2.002 0 0 0 .4-2.8L20.6 15.463M27.212 29.796l-.828-3.241a2 2 0 0 1 1.047-2.275l3.438-1.73" />
</svg>
